X:164
T:Jeuenctid Cymru
M:3/4
L:1/4
Q:80
C:Trad.
S:Davidsons Musical Miracles 1859
R:Waltz
K:G
E/F/ | G G G | F F F | E E G | F D B/A/ | G G G | F F F |
E G/F/ E/^D/ | E2 :|| E/F/ | G G A | B B c | d c B | B A A
| G G A | B B c | d c B | A2 B/A/ | G G G | F F
F | E E G | F D B/A/ | G G G | F F F | E G/F
/ E/^D/ | E4 ||
